svgs/duotone/calendar-exclamation.svg

<svg xmlns="http://www.w3.org/2000/svg" viewBox="0 0 448 512"><!--! Font Awesome Pro 6.6.0 by @fontawesome - https://fontawesome.com License - https://fontawesome.com/license (Commercial License) Copyright 2024 Fonticons, Inc. --><path class="fa-secondary" style="fill:var(--fa-secondary-color,inherit);opacity:var(--fa-secondary-opacity,.4);" d="M0 192l448 0 0 272c0 26.5-21.5 48-48 48L48 512c-26.5 0-48-21.5-48-48L0 192zM192 432a32 32 0 1 0 64 0 32 32 0 1 0 -64 0zm8-176l0 96c0 13.3 10.7 24 24 24s24-10.7 24-24l0-96c0-13.3-10.7-24-24-24s-24 10.7-24 24z"/><path class="fa-primary" style="fill:var(--fa-primary-color,inherit);opacity:var(--fa-primary-opacity,1);" d="M96 32c0-17.7 14.3-32 32-32s32 14.3 32 32l0 32 128 0 0-32c0-17.7 14.3-32 32-32s32 14.3 32 32l0 32 48 0c26.5 0 48 21.5 48 48l0 80L0 192l0-80C0 85.5 21.5 64 48 64l48 0 0-32zm96 400a32 32 0 1 1 64 0 32 32 0 1 1 -64 0zm56-176l0 96c0 13.3-10.7 24-24 24s-24-10.7-24-24l0-96c0-13.3 10.7-24 24-24s24 10.7 24 24z"/></svg>

<svg xmlns="http://www.w3.org/2000/svg" viewBox="0 0 448 512"><!--! Font Awesome Pro 6.4.2 by @fontawesome - https://fontawesome.com License - https://fontawesome.com/license (Commercial License) Copyright 2023 Fonticons, Inc. --><path class="fa-primary" style="fill:var(--fa-primary-color,inherit);opacity:var(--fa-primary-opacity,1);" d="M96 32c0-17.7 14.3-32 32-32s32 14.3 32 32V64H288V32c0-17.7 14.3-32 32-32s32 14.3 32 32V64h48c26.5 0 48 21.5 48 48v80H0V112C0 85.5 21.5 64 48 64H96V32zm96 400a32 32 0 1 1 64 0 32 32 0 1 1 -64 0zm56-176v96c0 13.3-10.7 24-24 24s-24-10.7-24-24V256c0-13.3 10.7-24 24-24s24 10.7 24 24z"/><path class="fa-secondary" style="fill:var(--fa-secondary-color,inherit);opacity:var(--fa-secondary-opacity,.4);" d="M0 192H448V464c0 26.5-21.5 48-48 48H48c-26.5 0-48-21.5-48-48V192zM256 432a32 32 0 1 0 -64 0 32 32 0 1 0 64 0zm-8-176c0-13.3-10.7-24-24-24s-24 10.7-24 24v96c0 13.3 10.7 24 24 24s24-10.7 24-24V256z"/></svg>
